X: 38047
T: Spike Island Lasses, The
R: reel
M: 4/4
K: Dmajor
=cAGB ADDE|FDAD FGAB|=cAGB AGFG|Adde efed|
=cAGB ADDE|FDAD FGAB|=cAGB AGFG|Addc d3 e||
f2ff eefe|dfed ceAa|fddf edcd|ABcA dAcd|
eaag egge|dged =cAGc|Addc decd|Acde fded||
=cAGc A3G|B3GA3B|=cAGc AGFG|Adde efed|
=cAGc A3c|BGGF G3 B|=cAGB AGFG|Addc d3e||
f2af fdad|fdaf geea|fdad fdAd|fage dcAc|
defg a3a|agfa g2ag|fddf edcA|dcde ffed||

